T: Highland Brigade At Magersfontein, The
M: 3/4
L: 1/8
K: Amix
A3/2B/2c2ce|a3/2g/2f2e2|e3/2c/2A2Ac|e3/2f/2c2B2|
e3/2c/2A2Bc|eca3/2g/2f2|f3/4g/4a3/4f/4 e3/2f/2cA|B3/2c/2 A2A2:|
c3/2d/2e2ea|fae2cA|c3/2d/2e2ea|f3/4g/4a3/4f/4e2ec|
d3/4c/4B3/4c/4A2Bc|eca3/2g/2f2 |f3/4g/4a3/4f/4 e3/2f/2cA|B3/2c/2 A2A2:|
